images/Chk1N92.svg

<?xml version="1.0" encoding="UTF-8"?>
<svg xmlns="http://www.w3.org/2000/svg" xmlns:xlink="http://www.w3.org/1999/xlink" width="300pt" height="300pt" viewBox="0 0 300 300" version="1.1">
<defs>
<g>
<symbol overflow="visible" id="glyph0-0">
<path style="stroke:none;" d="M 0.546875 1.9375 L 0.546875 -7.75 L 6.046875 -7.75 L 6.046875 1.9375 Z M 1.171875 1.328125 L 5.4375 1.328125 L 5.4375 -7.140625 L 1.171875 -7.140625 Z M 1.171875 1.328125 "/>
</symbol>
<symbol overflow="visible" id="glyph0-1">
<path style="stroke:none;" d="M 1.078125 -8.015625 L 2.171875 -8.015625 L 2.171875 -4.734375 L 6.109375 -4.734375 L 6.109375 -8.015625 L 7.1875 -8.015625 L 7.1875 0 L 6.109375 0 L 6.109375 -3.8125 L 2.171875 -3.8125 L 2.171875 0 L 1.078125 0 Z M 1.078125 -8.015625 "/>
</symbol>
<symbol overflow="visible" id="glyph0-2">
<path style="stroke:none;" d="M 4.328125 -7.28125 C 3.546875 -7.28125 2.921875 -6.984375 2.453125 -6.390625 C 1.992188 -5.804688 1.765625 -5.007812 1.765625 -4 C 1.765625 -2.988281 1.992188 -2.1875 2.453125 -1.59375 C 2.921875 -1.007812 3.546875 -0.71875 4.328125 -0.71875 C 5.117188 -0.71875 5.742188 -1.007812 6.203125 -1.59375 C 6.660156 -2.1875 6.890625 -2.988281 6.890625 -4 C 6.890625 -5.007812 6.660156 -5.804688 6.203125 -6.390625 C 5.742188 -6.984375 5.117188 -7.28125 4.328125 -7.28125 Z M 4.328125 -8.171875 C 5.453125 -8.171875 6.351562 -7.789062 7.03125 -7.03125 C 7.707031 -6.28125 8.046875 -5.269531 8.046875 -4 C 8.046875 -2.738281 7.707031 -1.726562 7.03125 -0.96875 C 6.351562 -0.21875 5.453125 0.15625 4.328125 0.15625 C 3.203125 0.15625 2.300781 -0.21875 1.625 -0.96875 C 0.957031 -1.71875 0.625 -2.726562 0.625 -4 C 0.625 -5.269531 0.957031 -6.28125 1.625 -7.03125 C 2.300781 -7.789062 3.203125 -8.171875 4.328125 -8.171875 Z M 4.328125 -8.171875 "/>
</symbol>
<symbol overflow="visible" id="glyph0-3">
<path style="stroke:none;" d="M 1.078125 -8.015625 L 2.546875 -8.015625 L 6.09375 -1.3125 L 6.09375 -8.015625 L 7.15625 -8.015625 L 7.15625 0 L 5.6875 0 L 2.125 -6.703125 L 2.125 0 L 1.078125 0 Z M 1.078125 -8.015625 "/>
</symbol>
<symbol overflow="visible" id="glyph0-4">
<path style="stroke:none;" d="M 7.078125 -7.40625 L 7.078125 -6.25 C 6.710938 -6.59375 6.320312 -6.847656 5.90625 -7.015625 C 5.5 -7.179688 5.0625 -7.265625 4.59375 -7.265625 C 3.675781 -7.265625 2.972656 -6.984375 2.484375 -6.421875 C 2.003906 -5.867188 1.765625 -5.0625 1.765625 -4 C 1.765625 -2.945312 2.003906 -2.140625 2.484375 -1.578125 C 2.972656 -1.015625 3.675781 -0.734375 4.59375 -0.734375 C 5.0625 -0.734375 5.5 -0.816406 5.90625 -0.984375 C 6.320312 -1.148438 6.710938 -1.40625 7.078125 -1.75 L 7.078125 -0.625 C 6.703125 -0.363281 6.300781 -0.164062 5.875 -0.03125 C 5.457031 0.09375 5.007812 0.15625 4.53125 0.15625 C 3.320312 0.15625 2.367188 -0.210938 1.671875 -0.953125 C 0.972656 -1.703125 0.625 -2.71875 0.625 -4 C 0.625 -5.289062 0.972656 -6.304688 1.671875 -7.046875 C 2.367188 -7.796875 3.320312 -8.171875 4.53125 -8.171875 C 5.007812 -8.171875 5.460938 -8.101562 5.890625 -7.96875 C 6.316406 -7.84375 6.710938 -7.65625 7.078125 -7.40625 Z M 7.078125 -7.40625 "/>
</symbol>
<symbol overflow="visible" id="glyph0-5">
<path style="stroke:none;" d="M 1.03125 -8.359375 L 2.03125 -8.359375 L 2.03125 0 L 1.03125 0 Z M 1.03125 -8.359375 "/>
</symbol>
</g>
</defs>
<g id="surface229">
<rect x="0" y="0" width="300" height="300" style="fill:rgb(100%,100%,100%);fill-opacity:1;stroke:none;"/>
<path style="fill:none;stroke-width:1.2;stroke-linecap:butt;stroke-linejoin:miter;stroke:rgb(100%,0%,0%);stroke-opacity:1;stroke-miterlimit:10;" d="M 72.414062 173.277344 L 75.660156 160.675781 "/>
<path style="fill:none;stroke-width:1.2;stroke-linecap:butt;stroke-linejoin:miter;stroke:rgb(0%,0%,0%);stroke-opacity:1;stroke-miterlimit:10;" d="M 75.660156 160.675781 L 78.902344 148.074219 "/>
<path style=" stroke:none;fill-rule:nonzero;fill:rgb(100%,100%,100%);fill-opacity:1;" d="M 64.414062 166.777344 L 81.414062 166.777344 L 81.414062 179.777344 L 64.414062 179.777344 Z M 64.414062 166.777344 "/>
<g style="fill:rgb(100%,0%,0%);fill-opacity:1;">
  <use xlink:href="#glyph0-1" x="64.414062" y="176.678711"/>
  <use xlink:href="#glyph0-2" x="72.438477" y="176.678711"/>
</g>
<path style="fill:none;stroke-width:1.2;stroke-linecap:butt;stroke-linejoin:miter;stroke:rgb(0%,0%,0%);stroke-opacity:1;stroke-miterlimit:10;" d="M 78.902344 148.074219 L 60.320312 129.855469 "/>
<path style="fill:none;stroke-width:1.2;stroke-linecap:butt;stroke-linejoin:miter;stroke:rgb(0%,0%,0%);stroke-opacity:1;stroke-miterlimit:10;" d="M 78.902344 148.074219 L 103.972656 141.089844 "/>
<path style="fill:none;stroke-width:1.2;stroke-linecap:butt;stroke-linejoin:miter;stroke:rgb(0%,0%,0%);stroke-opacity:1;stroke-miterlimit:10;" d="M 63.285156 130.617188 L 66.527344 118.015625 "/>
<path style="fill:none;stroke-width:1.2;stroke-linecap:butt;stroke-linejoin:miter;stroke:rgb(100%,0%,0%);stroke-opacity:1;stroke-miterlimit:10;" d="M 66.527344 118.015625 L 69.773438 105.414062 "/>
<path style="fill:none;stroke-width:1.2;stroke-linecap:butt;stroke-linejoin:miter;stroke:rgb(0%,0%,0%);stroke-opacity:1;stroke-miterlimit:10;" d="M 57.355469 129.089844 L 60.597656 116.488281 "/>
<path style="fill:none;stroke-width:1.2;stroke-linecap:butt;stroke-linejoin:miter;stroke:rgb(100%,0%,0%);stroke-opacity:1;stroke-miterlimit:10;" d="M 60.597656 116.488281 L 63.839844 103.886719 "/>
<path style="fill:none;stroke-width:1.2;stroke-linecap:butt;stroke-linejoin:miter;stroke:rgb(0%,0%,0%);stroke-opacity:1;stroke-miterlimit:10;" d="M 60.320312 129.855469 L 47.785156 133.34375 "/>
<path style="fill:none;stroke-width:1.2;stroke-linecap:butt;stroke-linejoin:miter;stroke:rgb(100%,0%,0%);stroke-opacity:1;stroke-miterlimit:10;" d="M 47.785156 133.34375 L 35.25 136.835938 "/>
<path style=" stroke:none;fill-rule:nonzero;fill:rgb(100%,100%,100%);fill-opacity:1;" d="M 62.804688 98.152344 L 71.804688 98.152344 L 71.804688 111.152344 L 62.804688 111.152344 Z M 62.804688 98.152344 "/>
<g style="fill:rgb(100%,0%,0%);fill-opacity:1;">
  <use xlink:href="#glyph0-2" x="62.804688" y="108.053711"/>
</g>
<path style=" stroke:none;fill-rule:nonzero;fill:rgb(100%,100%,100%);fill-opacity:1;" d="M 18.25 130.335938 L 35.25 130.335938 L 35.25 143.335938 L 18.25 143.335938 Z M 18.25 130.335938 "/>
<g style="fill:rgb(100%,0%,0%);fill-opacity:1;">
  <use xlink:href="#glyph0-1" x="18.25" y="140.237305"/>
  <use xlink:href="#glyph0-2" x="26.274414" y="140.237305"/>
</g>
<path style="fill:none;stroke-width:1.2;stroke-linecap:butt;stroke-linejoin:miter;stroke:rgb(0%,0%,0%);stroke-opacity:1;stroke-miterlimit:10;" d="M 103.972656 141.089844 L 110.460938 115.886719 "/>
<path style="fill:none;stroke-width:1.2;stroke-linecap:butt;stroke-linejoin:miter;stroke:rgb(0%,0%,0%);stroke-opacity:1;stroke-miterlimit:10;" d="M 110.550781 140.09375 L 115.742188 119.933594 "/>
<path style="fill:none;stroke-width:1.2;stroke-linecap:butt;stroke-linejoin:miter;stroke:rgb(0%,0%,0%);stroke-opacity:1;stroke-miterlimit:10;" d="M 122.554688 159.308594 L 103.972656 141.089844 "/>
<path style="fill:none;stroke-width:1.2;stroke-linecap:butt;stroke-linejoin:miter;stroke:rgb(0%,0%,0%);stroke-opacity:1;stroke-miterlimit:10;" d="M 110.460938 115.886719 L 135.527344 108.902344 "/>
<path style="fill:none;stroke-width:1.2;stroke-linecap:butt;stroke-linejoin:miter;stroke:rgb(0%,0%,0%);stroke-opacity:1;stroke-miterlimit:10;" d="M 135.527344 108.902344 L 154.113281 127.121094 "/>
<path style="fill:none;stroke-width:1.2;stroke-linecap:butt;stroke-linejoin:miter;stroke:rgb(0%,0%,0%);stroke-opacity:1;stroke-miterlimit:10;" d="M 133.101562 115.097656 L 147.96875 129.671875 "/>
<path style="fill:none;stroke-width:1.2;stroke-linecap:butt;stroke-linejoin:miter;stroke:rgb(0%,0%,0%);stroke-opacity:1;stroke-miterlimit:10;" d="M 154.113281 127.121094 L 165.988281 121.800781 "/>
<path style="fill:none;stroke-width:1.2;stroke-linecap:butt;stroke-linejoin:miter;stroke:rgb(0%,0%,100%);stroke-opacity:1;stroke-miterlimit:10;" d="M 165.988281 121.800781 L 177.859375 116.480469 "/>
<path style="fill:none;stroke-width:1.2;stroke-linecap:butt;stroke-linejoin:miter;stroke:rgb(0%,0%,0%);stroke-opacity:1;stroke-miterlimit:10;" d="M 147.625 152.324219 L 154.113281 127.121094 "/>
<path style="fill:none;stroke-width:1.2;stroke-linecap:butt;stroke-linejoin:miter;stroke:rgb(0%,0%,100%);stroke-opacity:1;stroke-miterlimit:10;" d="M 177.859375 116.480469 L 189.425781 122.445312 "/>
<path style="fill:none;stroke-width:1.2;stroke-linecap:butt;stroke-linejoin:miter;stroke:rgb(0%,0%,0%);stroke-opacity:1;stroke-miterlimit:10;" d="M 189.425781 122.445312 L 200.988281 128.410156 "/>
<path style=" stroke:none;fill-rule:nonzero;fill:rgb(100%,100%,100%);fill-opacity:1;" d="M 169.859375 109.980469 L 186.859375 109.980469 L 186.859375 122.980469 L 169.859375 122.980469 Z M 169.859375 109.980469 "/>
<g style="fill:rgb(0%,0%,100%);fill-opacity:1;">
  <use xlink:href="#glyph0-3" x="169.859375" y="119.881836"/>
  <use xlink:href="#glyph0-1" x="177.842773" y="119.881836"/>
</g>
<path style="fill:none;stroke-width:1.2;stroke-linecap:butt;stroke-linejoin:miter;stroke:rgb(0%,0%,0%);stroke-opacity:1;stroke-miterlimit:10;" d="M 200.988281 128.410156 L 220.546875 111.242188 "/>
<path style="fill:none;stroke-width:1.2;stroke-linecap:butt;stroke-linejoin:miter;stroke:rgb(0%,0%,0%);stroke-opacity:1;stroke-miterlimit:10;" d="M 206.984375 131.296875 L 222.628906 117.5625 "/>
<path style="fill:none;stroke-width:1.2;stroke-linecap:butt;stroke-linejoin:miter;stroke:rgb(0%,0%,0%);stroke-opacity:1;stroke-miterlimit:10;" d="M 206.078125 153.933594 L 200.988281 128.410156 "/>
<path style="fill:none;stroke-width:1.2;stroke-linecap:butt;stroke-linejoin:miter;stroke:rgb(0%,0%,0%);stroke-opacity:1;stroke-miterlimit:10;" d="M 220.546875 111.242188 L 245.191406 119.59375 "/>
<path style="fill:none;stroke-width:1.2;stroke-linecap:butt;stroke-linejoin:miter;stroke:rgb(0%,0%,0%);stroke-opacity:1;stroke-miterlimit:10;" d="M 245.191406 119.59375 L 254.972656 111.011719 "/>
<path style="fill:none;stroke-width:1.2;stroke-linecap:butt;stroke-linejoin:miter;stroke:rgb(0%,80%,0%);stroke-opacity:1;stroke-miterlimit:10;" d="M 254.972656 111.011719 L 264.75 102.425781 "/>
<path style="fill:none;stroke-width:1.2;stroke-linecap:butt;stroke-linejoin:miter;stroke:rgb(0%,0%,0%);stroke-opacity:1;stroke-miterlimit:10;" d="M 245.191406 119.59375 L 250.285156 145.117188 "/>
<path style="fill:none;stroke-width:1.2;stroke-linecap:butt;stroke-linejoin:miter;stroke:rgb(0%,0%,0%);stroke-opacity:1;stroke-miterlimit:10;" d="M 239.695312 123.34375 L 243.769531 143.761719 "/>
<path style=" stroke:none;fill-rule:nonzero;fill:rgb(100%,100%,100%);fill-opacity:1;" d="M 259.75 95.925781 L 270.75 95.925781 L 270.75 108.925781 L 259.75 108.925781 Z M 259.75 95.925781 "/>
<g style="fill:rgb(0%,80%,0%);fill-opacity:1;">
  <use xlink:href="#glyph0-4" x="259.75" y="105.827148"/>
  <use xlink:href="#glyph0-5" x="267.201172" y="105.827148"/>
</g>
<path style="fill:none;stroke-width:1.2;stroke-linecap:butt;stroke-linejoin:miter;stroke:rgb(0%,0%,0%);stroke-opacity:1;stroke-miterlimit:10;" d="M 250.285156 145.117188 L 230.726562 162.285156 "/>
<path style="fill:none;stroke-width:1.2;stroke-linecap:butt;stroke-linejoin:miter;stroke:rgb(0%,0%,0%);stroke-opacity:1;stroke-miterlimit:10;" d="M 230.726562 162.285156 L 206.078125 153.933594 "/>
<path style="fill:none;stroke-width:1.2;stroke-linecap:butt;stroke-linejoin:miter;stroke:rgb(0%,0%,0%);stroke-opacity:1;stroke-miterlimit:10;" d="M 230.226562 155.652344 L 210.507812 148.96875 "/>
<path style="fill:none;stroke-width:1.2;stroke-linecap:butt;stroke-linejoin:miter;stroke:rgb(0%,0%,0%);stroke-opacity:1;stroke-miterlimit:10;" d="M 206.078125 153.933594 L 189.300781 173.824219 "/>
<path style="fill:none;stroke-width:1.2;stroke-linecap:butt;stroke-linejoin:miter;stroke:rgb(0%,0%,0%);stroke-opacity:1;stroke-miterlimit:10;" d="M 186.503906 175.078125 L 191.828125 186.953125 "/>
<path style="fill:none;stroke-width:1.2;stroke-linecap:butt;stroke-linejoin:miter;stroke:rgb(100%,0%,0%);stroke-opacity:1;stroke-miterlimit:10;" d="M 191.828125 186.953125 L 197.148438 198.828125 "/>
<path style="fill:none;stroke-width:1.2;stroke-linecap:butt;stroke-linejoin:miter;stroke:rgb(0%,0%,0%);stroke-opacity:1;stroke-miterlimit:10;" d="M 192.09375 172.574219 L 197.414062 184.449219 "/>
<path style="fill:none;stroke-width:1.2;stroke-linecap:butt;stroke-linejoin:miter;stroke:rgb(100%,0%,0%);stroke-opacity:1;stroke-miterlimit:10;" d="M 197.414062 184.449219 L 202.734375 196.324219 "/>
<path style="fill:none;stroke-width:1.2;stroke-linecap:butt;stroke-linejoin:miter;stroke:rgb(0%,0%,0%);stroke-opacity:1;stroke-miterlimit:10;" d="M 189.300781 173.824219 L 176.292969 173.46875 "/>
<path style="fill:none;stroke-width:1.2;stroke-linecap:butt;stroke-linejoin:miter;stroke:rgb(0%,0%,100%);stroke-opacity:1;stroke-miterlimit:10;" d="M 176.292969 173.46875 L 163.285156 173.109375 "/>
<path style=" stroke:none;fill-rule:nonzero;fill:rgb(100%,100%,100%);fill-opacity:1;" d="M 195.941406 191.074219 L 204.941406 191.074219 L 204.941406 204.074219 L 195.941406 204.074219 Z M 195.941406 191.074219 "/>
<g style="fill:rgb(100%,0%,0%);fill-opacity:1;">
  <use xlink:href="#glyph0-2" x="195.941406" y="200.975586"/>
</g>
<path style="fill:none;stroke-width:1.2;stroke-linecap:butt;stroke-linejoin:miter;stroke:rgb(0%,0%,100%);stroke-opacity:1;stroke-miterlimit:10;" d="M 163.285156 173.109375 L 155.457031 162.71875 "/>
<path style="fill:none;stroke-width:1.2;stroke-linecap:butt;stroke-linejoin:miter;stroke:rgb(0%,0%,0%);stroke-opacity:1;stroke-miterlimit:10;" d="M 155.457031 162.71875 L 147.625 152.324219 "/>
<path style=" stroke:none;fill-rule:nonzero;fill:rgb(100%,100%,100%);fill-opacity:1;" d="M 155.285156 166.609375 L 172.285156 166.609375 L 172.285156 179.609375 L 155.285156 179.609375 Z M 155.285156 166.609375 "/>
<g style="fill:rgb(0%,0%,100%);fill-opacity:1;">
  <use xlink:href="#glyph0-3" x="155.285156" y="176.510742"/>
  <use xlink:href="#glyph0-1" x="163.268555" y="176.510742"/>
</g>
<path style="fill:none;stroke-width:1.2;stroke-linecap:butt;stroke-linejoin:miter;stroke:rgb(0%,0%,0%);stroke-opacity:1;stroke-miterlimit:10;" d="M 147.625 152.324219 L 122.554688 159.308594 "/>
<path style="fill:none;stroke-width:1.2;stroke-linecap:butt;stroke-linejoin:miter;stroke:rgb(0%,0%,0%);stroke-opacity:1;stroke-miterlimit:10;" d="M 143.476562 147.125 L 123.417969 152.710938 "/>
</g>
</svg>

<svg xmlns="http://www.w3.org/2000/svg" xmlns:xlink="http://www.w3.org/1999/xlink" width="300pt" height="300pt" viewBox="0 0 300 300"><defs><symbol overflow="visible"><path d="M.547 1.938V-7.75h5.5v9.688zm.625-.61h4.266v-8.47H1.171zm0 0"/></symbol><symbol overflow="visible" id="a"><path d="M1.078-8.016h1.094v3.282H6.11v-3.282h1.077V0H6.11v-3.813H2.17V0H1.078zm0 0"/></symbol><symbol overflow="visible" id="b"><path d="M4.328-7.28c-.78 0-1.406.296-1.875.89-.46.585-.687 1.382-.687 2.39 0 1.012.226 1.813.687 2.406.47.586 1.094.875 1.875.875.79 0 1.414-.288 1.875-.874.457-.593.688-1.394.688-2.406 0-1.008-.23-1.805-.687-2.39-.46-.594-1.086-.89-1.875-.89zm0-.892c1.125 0 2.024.383 2.703 1.14C7.708-6.28 8.048-5.27 8.048-4c0 1.262-.34 2.273-1.016 3.03C6.353-.22 5.454.157 4.33.157S2.3-.22 1.625-.97c-.668-.75-1-1.757-1-3.03 0-1.27.332-2.28 1-3.03.676-.76 1.578-1.142 2.703-1.142zm0 0"/></symbol><symbol overflow="visible" id="c"><path d="M1.078-8.016h1.47l3.546 6.704v-6.704h1.062V0H5.688L2.124-6.703V0H1.078zm0 0"/></symbol><symbol overflow="visible" id="d"><path d="M7.078-7.406v1.156c-.367-.344-.758-.598-1.172-.766-.406-.164-.843-.25-1.312-.25-.918 0-1.62.282-2.11.844-.48.555-.718 1.36-.718 2.422 0 1.055.238 1.86.718 2.422.49.562 1.192.844 2.11.844.468 0 .906-.082 1.312-.25.414-.164.805-.422 1.172-.766v1.125c-.375.262-.777.46-1.203.594-.418.124-.867.186-1.344.186-1.21 0-2.163-.367-2.858-1.11C.972-1.703.625-2.718.625-4c0-1.29.348-2.305 1.047-3.047.695-.75 1.648-1.125 2.86-1.125.476 0 .93.07 1.36.203.424.126.82.314 1.186.564zm0 0"/></symbol><symbol overflow="visible" id="e"><path d="M1.03-8.36h1V0h-1zm0 0"/></symbol></defs><g><path fill="#fff" d="M0 0h300v300H0z"/><path d="M72.414 173.277l3.246-12.6" stroke-width="1.2" stroke="#f00" stroke-miterlimit="10" fill="none"/><path d="M75.66 160.676l3.242-12.602" stroke-width="1.2" stroke="#000" stroke-miterlimit="10" fill="none"/><path d="M64.414 166.777h17v13h-17zm0 0" fill="#fff"/><g fill="#f00"><use xlink:href="#a" x="64.414" y="176.679"/><use xlink:href="#b" x="72.438" y="176.679"/></g><path d="M78.902 148.074l-18.582-18.22M78.902 148.074l25.07-6.984M63.285 130.617l3.242-12.6" stroke-width="1.2" stroke="#000" stroke-miterlimit="10" fill="none"/><path d="M66.527 118.016l3.246-12.602" stroke-width="1.2" stroke="#f00" stroke-miterlimit="10" fill="none"/><path d="M57.355 129.09l3.243-12.602" stroke-width="1.2" stroke="#000" stroke-miterlimit="10" fill="none"/><path d="M60.598 116.488l3.242-12.6" stroke-width="1.2" stroke="#f00" stroke-miterlimit="10" fill="none"/><path d="M60.32 129.855l-12.535 3.49" stroke-width="1.2" stroke="#000" stroke-miterlimit="10" fill="none"/><path d="M47.785 133.344l-12.535 3.492" stroke-width="1.2" stroke="#f00" stroke-miterlimit="10" fill="none"/><path d="M62.805 98.152h9v13h-9zm0 0" fill="#fff"/><use xlink:href="#b" x="62.805" y="108.054" fill="#f00"/><path d="M18.25 130.336h17v13h-17zm0 0" fill="#fff"/><g fill="#f00"><use xlink:href="#a" x="18.25" y="140.237"/><use xlink:href="#b" x="26.274" y="140.237"/></g><path d="M103.973 141.09l6.488-25.203M110.55 140.094l5.192-20.16M122.555 159.31l-18.582-18.22M110.46 115.887l25.067-6.985M135.527 108.902l18.586 18.22M133.102 115.098l14.867 14.574M154.113 127.12l11.875-5.32" stroke-width="1.2" stroke="#000" stroke-miterlimit="10" fill="none"/><path d="M165.988 121.8l11.87-5.32" stroke-width="1.2" stroke="#00f" stroke-miterlimit="10" fill="none"/><path d="M147.625 152.324l6.488-25.203" stroke-width="1.2" stroke="#000" stroke-miterlimit="10" fill="none"/><path d="M177.86 116.48l11.566 5.965" stroke-width="1.2" stroke="#00f" stroke-miterlimit="10" fill="none"/><path d="M189.426 122.445l11.562 5.965" stroke-width="1.2" stroke="#000" stroke-miterlimit="10" fill="none"/><path d="M169.86 109.98h17v13h-17zm0 0" fill="#fff"/><g fill="#00f"><use xlink:href="#c" x="169.859" y="119.882"/><use xlink:href="#a" x="177.843" y="119.882"/></g><path d="M200.988 128.41l19.56-17.168M206.984 131.297l15.645-13.734M206.078 153.934l-5.09-25.524M220.547 111.242l24.644 8.352M245.19 119.594l9.783-8.582" stroke-width="1.2" stroke="#000" stroke-miterlimit="10" fill="none"/><path d="M254.973 111.012l9.777-8.586" stroke-width="1.2" stroke="#0c0" stroke-miterlimit="10" fill="none"/><path d="M245.19 119.594l5.095 25.523M239.695 123.344l4.075 20.418" stroke-width="1.2" stroke="#000" stroke-miterlimit="10" fill="none"/><path d="M259.75 95.926h11v13h-11zm0 0" fill="#fff"/><g fill="#0c0"><use xlink:href="#d" x="259.75" y="105.827"/><use xlink:href="#e" x="267.201" y="105.827"/></g><path d="M250.285 145.117l-19.558 17.168M230.727 162.285l-24.65-8.35M230.227 155.652l-19.72-6.683M206.078 153.934l-16.777 19.89M186.504 175.078l5.324 11.875" stroke-width="1.2" stroke="#000" stroke-miterlimit="10" fill="none"/><path d="M191.828 186.953l5.32 11.875" stroke-width="1.2" stroke="#f00" stroke-miterlimit="10" fill="none"/><path d="M192.094 172.574l5.32 11.875" stroke-width="1.2" stroke="#000" stroke-miterlimit="10" fill="none"/><path d="M197.414 184.45l5.32 11.874" stroke-width="1.2" stroke="#f00" stroke-miterlimit="10" fill="none"/><path d="M189.3 173.824l-13.007-.355" stroke-width="1.2" stroke="#000" stroke-miterlimit="10" fill="none"/><path d="M176.293 173.47l-13.008-.36" stroke-width="1.2" stroke="#00f" stroke-miterlimit="10" fill="none"/><path d="M195.94 191.074h9v13h-9zm0 0" fill="#fff"/><use xlink:href="#b" x="195.941" y="200.976" fill="#f00"/><path d="M163.285 173.11l-7.828-10.39" stroke-width="1.2" stroke="#00f" stroke-miterlimit="10" fill="none"/><path d="M155.457 162.72l-7.832-10.396" stroke-width="1.2" stroke="#000" stroke-miterlimit="10" fill="none"/><path d="M155.285 166.61h17v13h-17zm0 0" fill="#fff"/><g fill="#00f"><use xlink:href="#c" x="155.285" y="176.511"/><use xlink:href="#a" x="163.269" y="176.511"/></g><path d="M147.625 152.324l-25.07 6.985M143.477 147.125l-20.06 5.586" stroke-width="1.2" stroke="#000" stroke-miterlimit="10" fill="none"/></g></svg>
